X:1
T:Title
%%score { ( 1 3 ) | ( 2 4 ) }
L:1/8
Q:1/4=100
M:4/4
K:F
V:1 treble nm="Grand Piano"
V:3 treble 
V:2 bass 
V:4 bass 
V:1
 [Fc]2 [CFA]2 [B,EG]2 [A,F]2 | [CFA]2 [B,DG]2 [B,EG]2 [A,F]2 | [Fd]2 [CFc]2 [CEB]2 [CFA]2 | %3
w: R.~Menthal * * *|||
 [CEG]2 FG z2 _B,2 | c2 A2 [EG]2 F2 | [FA]2 [F=B]2 [Ec]2 [Ec]2 | [Fd]2 [Ec]2 [F=B]2 [FA]2 | %7
w: ||||
 _A2 ^FA [A,C=A]4 | [A,CA]2 [A,CA]2 [CA]G [A,CF]2 | [CEG]2 E-[EA] [EB]2 A2 | D2 [CE]2 [CF]2 G2 | %11
w: ||||
 z4 [Ec]4 | c2 c2 cB [CFA]2 | [CEB]2 .[CEB]2 [CEB]2 [CFA]2 | [Fd]2 [CFc]2 [CEB]2 [CFA]2 | %15
w: ||||
[M:8/4] [B,DG]2 .[B,EG]2 [A,F]4 z8 |[M:4/4] [DFB]8 | [CFA]8 |] %18
w: |||
V:2
 [F,A,]2 F,2 C,2 D,2 | A,,2 B,,2 C,2 D,2 | [B,,B,]2 A,,2 G,,2 F,,2 | G,,2 G,,2 C2 z2 | %4
 [F,A,C]2 [F,C]2 [C,B,]2 [D,A,]2 | [D,A,]2 [D,G,]2 [C,G,]2 [C,G,]2 | %6
 [=B,,G,]2 [C,G,]2 [D,D]2 [D,C]2 | [E,=B,E]2 [E,B,D]2 A,,4 | F,2 F,2 z B, F,2 | %9
 C,2 z A, [C,G,]2 [F,F]2 | [B,,B,]2 [B,,G,]2 [A,,F,]2 [C,E,C]2 | [F,C]2 [D,F,]2 G,2 z2 | %12
 [F,A,F]2 [F,A,F]2 [F,F]-[F,DF] F,2 | C,2 z[K:treble] c[K:bass] C,2 F,2 | [B,,B,]2 A,,2 G,,2 A,,2 | %15
[M:8/4] .B,,3 A F,4 z8 |[M:4/4] B,,8 | F,8 |] %18
V:3
 x8 | x8 | x8 | z2 [=B,D]2 E4 | x8 | x8 | x8 | x8 | x8 | z2 .[B,G]2 z4 | x8 | A2 [F=B]2 z2 A,B, | %12
 x8 | x8 | x8 |[M:8/4] x16 |[M:4/4] x8 | x8 |] %18
V:4
 x8 | x8 | x8 | z4 C,4 | x8 | x8 | x8 | x8 | z4 F,2 z2 | z2 C,2 z4 | x8 | z4 C,4 | z4 .A,2 z2 | %13
 z2 C,2[K:treble][K:bass] z4 | x8 |[M:8/4] z2 C,2 z4 z8 |[M:4/4] x8 | x8 |] %18

